X: 6782
T: Chapel Bell, The
R: jig
M: 6/8
K: Dmixolydian
|:ADD DEG|Add c2e|dcA AGE|c2d dcG|
ADD DEG|Add c2e|dcA AGE|GED D3:|
|:Add dcd|cde e2e|dcA AGE|c2d dcG|
[1 Add dcd|cde e2e|dcA AGE|GED D3:|
[2 Add dcd|cde a2g|edc AGE|GED D3||

